src/assets/red_apart.svg

<svg height="19.1" viewBox="0 0 16.2 19.1" width="16.200001" xmlns="http://www.w3.org/2000/svg"><g transform="translate(-3.864407 -1.849153)"><path d="m12 15c-4.42 0-8 1.79-8 4v2h16v-2c0-2.21-3.58-4-8-4m-4-6a4 4 0 0 0 4 4 4 4 0 0 0 4-4m-4.5-7c-.3 0-.5.21-.5.5v3h-1v-2.5s-2.25.86-2.25 3.75c0 0-.75.14-.75 1.25h10c-.05-1.11-.75-1.25-.75-1.25 0-2.89-2.25-3.75-2.25-3.75v2.5h-1v-3c0-.29-.19-.5-.5-.5z" fill="#4e4e4e"/><path d="m11.5 2c-.3 0-.5.21-.5.5v3h-1v-2.5s-2.25.86-2.25 3.75c0 0-.75.14-.75 1.25h5v-6zm-3.5 7a4 4 0 0 0 4 4v-4zm4 6c-4.42 0-8 1.79-8 4v2h8z" fill="#f44336"/></g></svg>

<?xml version="1.0" encoding="UTF-8" standalone="no"?>
<svg
   xmlns:dc="http://purl.org/dc/elements/1.1/"
   xmlns:cc="http://creativecommons.org/ns#"
   xmlns:rdf="http://www.w3.org/1999/02/22-rdf-syntax-ns#"
   xmlns:svg="http://www.w3.org/2000/svg"
   xmlns="http://www.w3.org/2000/svg"
   xmlns:sodipodi="http://sodipodi.sourceforge.net/DTD/sodipodi-0.dtd"
   xmlns:inkscape="http://www.inkscape.org/namespaces/inkscape"
   id="svg4"
   viewBox="0 0 16.2 19.1"
   height="19.1"
   width="16.200001"
   version="1.1"
   sodipodi:docname="red_apart.svg"
   inkscape:version="0.92.3 (2405546, 2018-03-11)">
  <sodipodi:namedview
     pagecolor="#ffffff"
     bordercolor="#666666"
     borderopacity="1"
     objecttolerance="10"
     gridtolerance="10"
     guidetolerance="10"
     inkscape:pageopacity="0"
     inkscape:pageshadow="2"
     inkscape:window-width="1207"
     inkscape:window-height="790"
     id="namedview821"
     showgrid="false"
     inkscape:zoom="44.188481"
     inkscape:cx="4.0039103"
     inkscape:cy="9.5500002"
     inkscape:window-x="516"
     inkscape:window-y="82"
     inkscape:window-maximized="0"
     inkscape:current-layer="g4580" />
  <metadata
     id="metadata10">
    <rdf:RDF>
      <cc:Work
         rdf:about="">
        <dc:format>image/svg+xml</dc:format>
        <dc:type
           rdf:resource="http://purl.org/dc/dcmitype/StillImage" />
        <dc:title />
      </cc:Work>
    </rdf:RDF>
  </metadata>
  <defs
     id="defs8" />
  <g
     transform="translate(-3.8644068,-1.8491534)"
     id="g4580">
    <path
       d="m 12,15 c -4.42,0 -8,1.79 -8,4 v 2 h 16 v -2 c 0,-2.21 -3.58,-4 -8,-4 M 8,9 a 4,4 0 0 0 4,4 4,4 0 0 0 4,-4 M 11.5,2 C 11.2,2 11,2.21 11,2.5 v 3 H 10 V 3 C 10,3 7.75,3.86 7.75,6.75 7.75,6.75 7,6.89 7,8 H 17 C 16.95,6.89 16.25,6.75 16.25,6.75 16.25,3.86 14,3 14,3 v 2.5 h -1 v -3 C 13,2.21 12.81,2 12.5,2 Z"
       id="path2-3"
       style="fill:#4e4e4e;fill-opacity:1"
       inkscape:connector-curvature="0" />
    <path
       style="fill:#f44336;fill-opacity:1"
       d="M 11.5,2 C 11.2,2 11,2.21 11,2.5 v 3 H 10 V 3 C 10,3 7.75,3.86 7.75,6.75 7.75,6.75 7,6.89 7,8 h 5 V 2 Z M 8,9 a 4,4 0 0 0 4,4 V 9 Z m 4,6 c -4.42,0 -8,1.79 -8,4 v 2 h 8 z"
       id="path2" />
  </g>
</svg>
